app/images/icons/access_to_team.svg

<svg
 xmlns="http://www.w3.org/2000/svg"
 xmlns:xlink="http://www.w3.org/1999/xlink"
 width="48px" height="43px">
<path fill-rule="evenodd"  fill="rgb(255, 255, 255)"
 d="M46.000,25.363 L46.000,33.500 C46.000,34.053 45.553,34.500 45.000,34.500 L39.000,34.500 C38.447,34.500 38.000,34.053 38.000,33.500 L38.000,25.363 C36.672,24.959 36.000,23.666 36.000,21.500 L36.000,15.500 C36.000,14.947 36.447,14.500 37.000,14.500 L47.000,14.500 C47.553,14.500 48.000,14.947 48.000,15.500 L48.000,21.500 C47.998,23.664 47.326,24.959 46.000,25.363 ZM46.000,16.500 L38.000,16.500 L38.000,21.500 C38.000,23.500 38.555,23.500 39.000,23.500 C39.553,23.500 40.000,23.947 40.000,24.500 L40.000,32.500 L44.000,32.500 L44.000,24.500 C44.000,23.947 44.447,23.500 45.000,23.500 C45.445,23.500 45.998,23.500 46.000,21.499 L46.000,16.500 ZM42.000,12.500 C39.795,12.500 38.000,10.706 38.000,8.500 C38.000,6.294 39.795,4.500 42.000,4.500 C44.205,4.500 46.000,6.294 46.000,8.500 C46.000,10.706 44.205,12.500 42.000,12.500 ZM42.000,6.500 C40.896,6.500 40.000,7.397 40.000,8.500 C40.000,9.603 40.896,10.500 42.000,10.500 C43.104,10.500 44.000,9.603 44.000,8.500 C44.000,7.397 43.104,6.500 42.000,6.500 ZM28.000,30.400 L28.000,41.500 C28.000,42.053 27.553,42.500 27.000,42.500 L21.000,42.500 C20.447,42.500 20.000,42.053 20.000,41.500 L20.000,30.400 C17.721,29.935 16.000,27.914 16.000,25.500 L16.000,15.500 C16.000,14.947 16.447,14.500 17.000,14.500 L31.000,14.500 C31.553,14.500 32.000,14.947 32.000,15.500 L32.000,25.500 C32.000,27.914 30.279,29.935 28.000,30.400 ZM30.000,16.500 L18.000,16.500 L18.000,25.500 C18.000,27.154 19.346,28.500 21.000,28.500 C21.553,28.500 22.000,28.947 22.000,29.500 L22.000,40.500 L26.000,40.500 L26.000,29.500 C26.000,28.947 26.447,28.500 27.000,28.500 C28.654,28.500 30.000,27.154 30.000,25.500 L30.000,16.500 ZM24.000,12.500 C20.691,12.500 18.000,9.809 18.000,6.500 C18.000,3.191 20.691,0.500 24.000,0.500 C27.309,0.500 30.000,3.191 30.000,6.500 C30.000,9.809 27.309,12.500 24.000,12.500 ZM24.000,2.500 C21.794,2.500 20.000,4.294 20.000,6.500 C20.000,8.706 21.794,10.500 24.000,10.500 C26.205,10.500 28.000,8.706 28.000,6.500 C28.000,4.294 26.205,2.500 24.000,2.500 ZM10.000,25.363 L10.000,33.500 C10.000,34.053 9.553,34.500 9.000,34.500 L3.000,34.500 C2.447,34.500 2.000,34.053 2.000,33.500 L2.000,25.363 C0.672,24.959 0.000,23.666 0.000,21.500 L0.000,15.500 C0.000,14.947 0.447,14.500 1.000,14.500 L11.000,14.500 C11.553,14.500 12.000,14.947 12.000,15.500 L12.000,21.500 C11.997,23.664 11.325,24.959 10.000,25.363 ZM10.000,16.500 L2.000,16.500 L2.000,21.500 C2.000,23.500 2.555,23.500 3.000,23.500 C3.553,23.500 4.000,23.947 4.000,24.500 L4.000,32.500 L8.000,32.500 L8.000,24.500 C8.000,23.947 8.447,23.500 9.000,23.500 C9.444,23.500 9.998,23.500 10.000,21.499 L10.000,16.500 ZM6.000,12.500 C3.794,12.500 2.000,10.706 2.000,8.500 C2.000,6.294 3.794,4.500 6.000,4.500 C8.206,4.500 10.000,6.294 10.000,8.500 C10.000,10.706 8.206,12.500 6.000,12.500 ZM6.000,6.500 C4.897,6.500 4.000,7.397 4.000,8.500 C4.000,9.603 4.897,10.500 6.000,10.500 C7.103,10.500 8.000,9.603 8.000,8.500 C8.000,7.397 7.103,6.500 6.000,6.500 Z"/>
</svg>

<?xml version="1.0" encoding="utf-8"?>
<!-- Generator: Adobe Illustrator 21.0.2, SVG Export Plug-In . SVG Version: 6.00 Build 0)  -->
<svg version="1.1" id="Layer_1" xmlns="http://www.w3.org/2000/svg" xmlns:xlink="http://www.w3.org/1999/xlink" x="0px" y="0px"
	 viewBox="0 0 48 43" style="enable-background:new 0 0 48 43;" xml:space="preserve">
<style type="text/css">
	.st0{fill:#FFFFFF;}
</style>
<path class="st0" d="M46,25.4v8.1c0,0.6-0.4,1-1,1h-6c-0.6,0-1-0.4-1-1v-8.1c-1.3-0.4-2-1.7-2-3.9v-6c0-0.6,0.4-1,1-1h10
	c0.6,0,1,0.4,1,1v6C48,23.7,47.3,25,46,25.4z M46,16.5h-8v5c0,2,0.6,2,1,2c0.6,0,1,0.4,1,1v8h4v-8c0-0.6,0.4-1,1-1c0.4,0,1,0,1-2
	V16.5z M42,12.5c-2.2,0-4-1.8-4-4s1.8-4,4-4s4,1.8,4,4S44.2,12.5,42,12.5z M42,6.5c-1.1,0-2,0.9-2,2s0.9,2,2,2s2-0.9,2-2
	S43.1,6.5,42,6.5z M28,30.4v11.1c0,0.6-0.4,1-1,1h-6c-0.6,0-1-0.4-1-1V30.4c-2.3-0.5-4-2.5-4-4.9v-10c0-0.6,0.4-1,1-1h14
	c0.6,0,1,0.4,1,1v10C32,27.9,30.3,29.9,28,30.4z M30,16.5H18v9c0,1.7,1.3,3,3,3c0.6,0,1,0.4,1,1v11h4v-11c0-0.6,0.4-1,1-1
	c1.7,0,3-1.3,3-3V16.5z M24,12.5c-3.3,0-6-2.7-6-6s2.7-6,6-6s6,2.7,6,6S27.3,12.5,24,12.5z M24,2.5c-2.2,0-4,1.8-4,4s1.8,4,4,4
	c2.2,0,4-1.8,4-4S26.2,2.5,24,2.5z M10,25.4v8.1c0,0.6-0.4,1-1,1H3c-0.6,0-1-0.4-1-1v-8.1c-1.3-0.4-2-1.7-2-3.9v-6c0-0.6,0.4-1,1-1
	h10c0.6,0,1,0.4,1,1v6C12,23.7,11.3,25,10,25.4z M10,16.5H2v5c0,2,0.6,2,1,2c0.6,0,1,0.4,1,1v8h4v-8c0-0.6,0.4-1,1-1c0.4,0,1,0,1-2
	V16.5z M6,12.5c-2.2,0-4-1.8-4-4s1.8-4,4-4s4,1.8,4,4S8.2,12.5,6,12.5z M6,6.5c-1.1,0-2,0.9-2,2s0.9,2,2,2s2-0.9,2-2S7.1,6.5,6,6.5z
	"/>
</svg>
